!!!OTL: Ein Kinderlied auf die Weihnachten
!!!ARE: Europa, Mitteleuropa, Deutschland
!!!SCT: A0518
!!!YEM: Copyright 1995, estate of Helmut Schaffrath.
**kern
*ICvox
*Ivox
*M4/1
*k[b-]
*F:
{2ff
=1
1ee
1dd
1ee
1cc
=2
1dd
1ee
1ff
2r}
{2ff
=3
1ff
1cc
1cc
1a
=4
1cc
1b-
1a
2r}
{2a
=5
1dd
1dd
1cc
1ee
=6
1ff
1dd
1cc
2r}
{2ff
=7
1ee
1dd
1cc
1dd
=8
2b-
2a
1g
1.f}
==
!!!AGN: Romanze, Ballade, Lied, religioeses Lied
!! Schumanns Gsgb 1539 fol. 3 (Luther?)
!!!ONB: ESAC (Essen Associative Code) Database: ALTDEU
!!!AMT: simple quadruple
!!!AIN: vox
!!!EED: Helmut Schaffrath
!!!EEV: 1.0
*-
